svgs/thin/image-polaroid-user.svg

<svg xmlns="http://www.w3.org/2000/svg" viewBox="0 0 448 512"><!--! Font Awesome Pro 6.6.0 by @fontawesome - https://fontawesome.com License - https://fontawesome.com/license (Commercial License) Copyright 2024 Fonticons, Inc. --><path d="M16 416c0 26.5 21.5 48 48 48l320 0c26.5 0 48-21.5 48-48l0-64-96 0-16 0-192 0-16 0-96 0 0 64zm318.4-80l97.6 0 0-240c0-26.5-21.5-48-48-48L64 48C37.5 48 16 69.5 16 96l0 240 97.6 0c7.4-36.5 39.7-64 78.4-64l64 0c38.7 0 71 27.5 78.4 64zM130 336l188 0c-7.1-27.6-32.2-48-62-48l-64 0c-29.8 0-54.9 20.4-62 48zM448 96l0 240 0 8 0 8 0 64c0 35.3-28.7 64-64 64L64 480c-35.3 0-64-28.7-64-64l0-64 0-8 0-8L0 96C0 60.7 28.7 32 64 32l320 0c35.3 0 64 28.7 64 64zM272 176a48 48 0 1 0 -96 0 48 48 0 1 0 96 0zm-48-64a64 64 0 1 1 0 128 64 64 0 1 1 0-128z"/></svg>

<svg xmlns="http://www.w3.org/2000/svg" viewBox="0 0 448 512"><!--! Font Awesome Pro 6.4.2 by @fontawesome - https://fontawesome.com License - https://fontawesome.com/license (Commercial License) Copyright 2023 Fonticons, Inc. --><path d="M16 416c0 26.5 21.5 48 48 48H384c26.5 0 48-21.5 48-48V352H336 320 128 112 16v64zm318.4-80H432V96c0-26.5-21.5-48-48-48H64C37.5 48 16 69.5 16 96V336h97.6c7.4-36.5 39.7-64 78.4-64h64c38.7 0 71 27.5 78.4 64zM130 336H318c-7.1-27.6-32.2-48-62-48H192c-29.8 0-54.9 20.4-62 48zM448 96V336v8 8 64c0 35.3-28.7 64-64 64H64c-35.3 0-64-28.7-64-64V352v-8-8V96C0 60.7 28.7 32 64 32H384c35.3 0 64 28.7 64 64zM272 176a48 48 0 1 0 -96 0 48 48 0 1 0 96 0zm-48-64a64 64 0 1 1 0 128 64 64 0 1 1 0-128z"/></svg>
